brandFactory_export/3.Masa/Rayo _3Masa.svg

<?xml version="1.0" encoding="UTF-8"?>
<svg width="24px" height="24px" viewBox="0 0 24 24" version="1.1" xmlns="http://www.w3.org/2000/svg" xmlns:xlink="http://www.w3.org/1999/xlink">
    <title>3.Masa/Rayo _3Masa</title>
    <g id="Symbols" stroke="none" stroke-width="1" fill="none" fill-rule="evenodd">
        <g id="3.Masa/Rayo-_3Masa" fill="#5CB615" fill-rule="nonzero">
            <path d="M19.7462185,11.1462185 C19.6789916,10.8941176 19.4806723,10.6957983 19.2252101,10.6319328 L13.8201681,9.30084034 L17.087395,1.01512605 C17.2151261,0.68907563 17.1008403,0.315966387 16.8117647,0.121008403 C16.5260504,-0.0705882353 16.1394958,-0.0235294118 15.907563,0.231932773 L5.20840336,11.7142857 C5.0302521,11.9058824 4.96638655,12.1781513 5.03697479,12.4302521 C5.10756303,12.6823529 5.30252101,12.8739496 5.55462185,12.9378151 L10.4890756,14.1579832 L7.25210084,22.6184874 C7.12773109,22.9411765 7.24201681,23.307563 7.52773109,23.502521 C7.81008403,23.6941176 8.18991597,23.6537815 8.42521008,23.405042 L19.5680672,11.8655462 C19.7495798,11.6739496 19.8168067,11.4016807 19.7462185,11.1462185 L19.7462185,11.1462185 Z" id="Path"></path>
        </g>
    </g>
</svg>

<svg width="24" height="24" viewBox="0 0 24 24" xmlns="http://www.w3.org/2000/svg"><path d="M19.746 11.146a.721.721 0 00-.52-.514L13.82 9.3l3.267-8.286a.75.75 0 00-.275-.894.699.699 0 00-.904.11l-10.7 11.483a.754.754 0 00-.171.716c.07.252.266.444.518.508l4.934 1.22-3.237 8.46a.746.746 0 00.276.885.696.696 0 00.897-.098l11.143-11.54a.753.753 0 00.178-.719z" fill="#5CB615" fill-rule="nonzero"/></svg>
